;Generated by Cura LulzBot Edition GCodeWriter Version: 3.6.37
;FLAVOR:Marlin
;TIME:44
;Filament used: 0.0471709m
;Layer height: 1
;Generated with Cura_SteamEngine 3.6.37-win10
M82 ;absolute extrusion mode
;This G-Code has been generated specifically for LulzBot TAZ Pro with SE Tool Head - edited by J. Case 1/24/2024 for printing soft materials
;
;The following lines can be uncommented for printer specific fine tuning
;More information can be found at https://marlinfw.org/meta/gcode/
;
M73 P0                  ; clear LCD progress bar
M75                     ; Start LCD Print Timer
G26                     ; disable fans
M107 					; disable fans
M420 S0                 ; disable leveling matrix
G90 					; absolute positioning
M82 					; set extruder to absolute mode
G92 E0 					; set extruder position to 0
G1 X240 Y270 Z60 F3000   ; move to printing position
M117 Fast purge (~2.7 min); progress indicator message on LCD
G1 E350 F130
M400					; wait for moves to finish
M117 Slow purge (~7.1 min); progress indicator on LCD
G1 E500 F70
M400
M117 Printing...        ; print complete message
M221 S100 T0
G92 E0
;LAYER_COUNT:2
;LAYER:0
M107
;MESH:
G0 F7200 X118.011 Y56.01 Z1
;TYPE:WALL-INNER
G1 F600 X101.011 Y56.01 E1.98761
G1 X101.011 Y39.01 E3.97522
G1 X118.011 Y39.01 E5.96283
G1 X118.011 Y56.01 E7.95044
G0 F7200 X119.011 Y57.01
;TYPE:WALL-OUTER
G1 F600 X100.011 Y57.01 E10.17189
G1 X100.011 Y38.01 E12.39333
G1 X119.011 Y38.01 E14.61478
G1 X119.011 Y57.01 E16.83623
G0 F7200 X118.761 Y57.01
G0 X117.941 Y55.94
G0 X117.021 Y55.02
;TYPE:SKIN
G1 F600 X102.001 Y55.02 E18.59234
G1 X102.001 Y40 E20.34845
G1 X117.021 Y40 E22.10456
G1 X117.021 Y55.02 E23.86067
G0 F7200 X116.57 Y41.616
G1 F600 X115.403 Y40.45 E24.05355
G0 F7200 X113.989 Y40.45
G1 F600 X116.57 Y43.03 E24.48023
G0 F7200 X116.57 Y44.445
G1 F600 X112.574 Y40.45 E25.14087
G0 F7200 X111.16 Y40.45
G1 F600 X116.57 Y45.859 E26.03532
G0 F7200 X116.57 Y47.273
G1 F600 X109.746 Y40.45 E27.16357
G0 F7200 X108.332 Y40.45
G1 F600 X116.57 Y48.687 E28.52562
G0 F7200 X116.57 Y50.102
G1 F600 X106.918 Y40.45 E30.12155
G0 F7200 X105.503 Y40.45
G1 F600 X116.57 Y51.516 E31.95137
G0 F7200 X116.57 Y52.93
G1 F600 X104.089 Y40.45 E34.01498
G0 F7200 X102.675 Y40.45
G1 F600 X116.57 Y54.344 E36.3124
G0 F7200 X115.38 Y54.569
G1 F600 X102.449 Y41.638 E38.45051
G0 F7200 X102.449 Y43.052
G1 F600 X113.966 Y54.569 E40.35481
G0 F7200 X112.552 Y54.569
G1 F600 X102.449 Y44.467 E42.02524
G0 F7200 X102.449 Y45.881
G1 F600 X111.138 Y54.569 E43.46186
G0 F7200 X109.723 Y54.569
G1 F600 X102.449 Y47.295 E44.66459
G0 F7200 X102.449 Y48.709
G1 F600 X108.309 Y54.569 E45.63353
G0 F7200 X106.895 Y54.569
G1 F600 X102.449 Y50.123 E46.36866
G0 F7200 X102.449 Y51.538
G1 F600 X105.481 Y54.569 E46.86991
G0 F7200 X104.067 Y54.569
G1 F600 X102.449 Y52.952 E47.13736
G0 F7200 X102.449 Y54.366
G1 F600 X102.652 Y54.569 E47.17093
;TIME_ELAPSED:44.005448
M140 S0
M400                                      ; wait for moves to finish
G1 X240 Y270 Z60 F3000                    ; move to cooling position
M400					  ; wait for moves to finish
M77					  ; End LCD Print Timer
G90                                       ; absolute positioning
M18 X Y E				  ; turn off x y and e axis
M117 Print Complete.                      ; print complete message
M82 ;absolute extrusion mode
;End of Gcode
