;Generated by Cura LulzBot Edition GCodeWriter Version: 3.6.37
;FLAVOR:Marlin
;TIME:974
;Filament used: 0.201041m
;Layer height: 0.1
;Generated with Cura_SteamEngine 3.6.37-win10
M82 ;absolute extrusion mode
;This G-Code has been generated specifically for LulzBot TAZ Pro with SE Tool Head
;
;The following lines can be uncommented for printer specific fine tuning
;More information can be found at https://marlinfw.org/meta/gcode/
;
;M92 E420                 ;Set Axis Steps-per-unit
;M301 P21.0 I1.78 D61.93  ;Set Hotend PID
;M906 E960                ;TMC Motor Current
;
M73 P0                  ; clear LCD progress bar
M75 					; Start LCD Print Timer
G26 					; clear potential 'probe fail' condition
M107 					; disable fans
M420 S0                 ; disable leveling matrix
G90 					; absolute positioning
M82 					; set extruder to absolute mode
G92 E0 					; set extruder position to 0
M140 S25.0 ; start bed heating up
G28 					; home all axes
G0 X145 Y187 Z156 F3000 			; move away from endstops
M117 Q - SE Heating Up...			; progress indicator message on LCD
;M109 R25.0 	; soften filament before retraction
;M117 Q - SE Retracting Filament...			; progress indicator message on LCD
;G1 E-15 F75 				; retract filament
;M109 R25.0                  ; wait for extruder to reach wiping temp
;M206 X0 Y0 Z0              ; uncomment to adjust wipe position (+X ~ nozzle moves left)(+Y ~ nozzle moves forward)(+Z ~ nozzle moves down)
;G12                         ; wiping sequence
M206 X0 Y0 Z0               ; reseting stock nozzle position ### CAUTION: changing this line can affect print quality ###
;G1 X0 Y0 F3000				; move toward first probe point
;M109 R25.0	; wait for extruder to reach probe temp
;M204 S300				; set probing acceleration
;G29					; start auto-leveling sequence
;M420 S1                     ; enable leveling matrix
;M425 Z			     		; use measured Z backlash for compensation
;M425 Z F0		     		; turn off measured Z backlash compensation. (if activated in the quality settings, this command will automatically be ignored)
;M204 S2000				; restore standard acceleration
;G1 X5 Y15 Z10 F5000			; move up off last probe point
;G4 S1					; pause
M400					; wait for moves to finish
M117 Heating...				; progress indicator message on LCD
M109 R30.0 ; wait for extruder to reach initial printing temp
M190 R25.0 ; wait for bed to reach printing temp
G1 Z2 E0 F75				; prime tiny bit of filament into the nozzle
M117 Q - SE Printing...		; progress indicator message on LCD

M221 S100 T0
G92 E0
;LAYER_COUNT:129
;LAYER:0
M107
G0 F3600 X139.851 Y126.343 Z0.3
;TYPE:SKIRT
G1 F1800 X140.189 Y125.833 E0.01439
G1 X140.689 Y125.186 E0.03361
G1 X141.153 Y124.677 E0.04981
G1 X141.731 Y124.138 E0.06839
G1 X142.184 Y123.77 E0.08211
G1 X142.483 Y123.578 E0.09047
G1 X143.739 Y122.843 E0.12469
G1 X144.261 Y122.584 E0.13839
G1 X144.633 Y122.45 E0.14768
G1 X145.385 Y122.218 E0.16619
G1 X146.071 Y122.067 E0.18271
G1 X146.911 Y121.954 E0.20263
G1 X147.591 Y121.917 E0.21865
G1 X148.382 Y121.938 E0.23725
G1 X149.111 Y122.021 E0.2545
G1 X149.967 Y122.194 E0.27504
G1 X150.612 Y122.379 E0.29082
G1 X151.324 Y122.645 E0.30869
G1 X151.97 Y122.95 E0.32549
G1 X152.723 Y123.387 E0.34596
G1 X153.292 Y123.783 E0.36226
G1 X153.905 Y124.288 E0.38093
G1 X154.383 Y124.749 E0.39655
G1 X154.891 Y125.322 E0.41455
G1 X155.335 Y125.921 E0.43208
G1 X155.817 Y126.708 E0.45378
G1 X156.111 Y127.28 E0.4689
G1 X156.381 Y127.922 E0.48528
G1 X156.593 Y128.567 E0.50125
G1 X156.787 Y129.366 E0.52058
G1 X156.899 Y130.109 E0.53825
G1 X156.955 Y131.023 E0.55978
G1 X156.928 Y131.823 E0.5786
G1 X156.748 Y133.227 E0.61188
G1 X156.718 Y133.43 E0.61671
G1 X153.302 Y152.679 E1.07638
G1 X153.121 Y153.36 E1.09295
G1 X152.716 Y154.499 E1.12138
G1 X152.353 Y155.267 E1.14135
G1 X151.955 Y155.928 E1.15949
G1 X151.568 Y156.47 E1.17515
G1 X151.069 Y157.064 E1.19339
G1 X150.598 Y157.542 E1.20917
G1 X149.94 Y158.112 E1.22964
G1 X149.357 Y158.536 E1.24659
G1 X148.762 Y158.896 E1.26294
G1 X148.235 Y159.167 E1.27688
G1 X147.462 Y159.498 E1.29665
G1 X146.784 Y159.723 E1.31345
G1 X146.128 Y159.881 E1.32931
G1 X145.42 Y159.989 E1.34615
G1 X144.059 Y160.081 E1.37823
G1 X143.757 Y160.091 E1.38533
G1 X133.856 Y160.055 E1.61814
G1 X133.274 Y160.013 E1.63186
G1 X132.966 Y159.958 E1.63921
G1 X131.589 Y159.658 E1.67235
G1 X131.03 Y159.495 E1.68604
G1 X130.577 Y159.298 E1.69766
G1 X129.675 Y158.842 E1.72142
G1 X129.174 Y158.544 E1.73513
G1 X128.9 Y158.338 E1.74319
G1 X127.897 Y157.517 E1.77367
G1 X127.472 Y157.118 E1.78737
G1 X127.131 Y156.699 E1.80007
G1 X126.455 Y155.753 E1.82741
G1 X126.15 Y155.257 E1.8411
G1 X125.977 Y154.885 E1.85075
G1 X125.483 Y153.672 E1.88155
G1 X125.301 Y153.118 E1.89526
G1 X125.201 Y152.587 E1.90796
G1 X125.057 Y151.415 E1.93573
G1 X125.035 Y150.61 E1.95466
G1 X125.088 Y149.826 E1.97314
G1 X125.189 Y149.147 E1.98928
G1 X125.375 Y148.35 E2.00852
G1 X125.591 Y147.681 E2.02505
G1 X125.912 Y146.911 E2.04467
G1 X126.173 Y146.389 E2.05839
G1 X126.333 Y146.138 E2.06539
G1 X127.066 Y145.072 E2.09581
G1 X127.298 Y144.765 E2.10486
G1 X129.62 Y141.968 E2.19033
G1 X132.891 Y137.638 E2.31793
G1 X135.93 Y133.104 E2.44627
G1 X137.322 Y130.823 E2.5091
G1 X139.851 Y126.343 E2.63007
G0 F3600 X140.287 Y126.588
G1 F1800 X140.585 Y126.139 E2.64274
G1 X141.085 Y125.492 E2.66197
G1 X141.494 Y125.042 E2.67626
G1 X142.072 Y124.503 E2.69485
G1 X142.499 Y124.16 E2.70773
G1 X142.736 Y124.009 E2.71433
G1 X143.992 Y123.274 E2.74855
G1 X144.483 Y123.033 E2.76141
G1 X144.78 Y122.928 E2.76882
G1 X145.532 Y122.696 E2.78732
G1 X146.138 Y122.562 E2.80192
G1 X146.978 Y122.449 E2.82185
G1 X147.578 Y122.417 E2.83597
G1 X148.369 Y122.438 E2.85458
G1 X149.012 Y122.511 E2.8698
G1 X149.868 Y122.684 E2.89033
G1 X150.437 Y122.847 E2.90425
G1 X151.149 Y123.113 E2.92212
G1 X151.719 Y123.383 E2.93695
G1 X152.472 Y123.82 E2.95742
G1 X152.974 Y124.169 E2.9718
G1 X153.587 Y124.674 E2.99047
G1 X154.009 Y125.08 E3.00424
G1 X154.517 Y125.653 E3.02224
G1 X154.909 Y126.182 E3.03773
G1 X155.391 Y126.969 E3.05943
G1 X155.65 Y127.474 E3.07277
G1 X155.92 Y128.116 E3.08915
G1 X156.107 Y128.685 E3.10323
G1 X156.301 Y129.484 E3.12256
G1 X156.4 Y130.14 E3.13816
G1 X156.456 Y131.054 E3.15969
G1 X156.433 Y131.76 E3.1763
G1 X156.253 Y133.164 E3.20958
G1 X156.225 Y133.342 E3.21382
G1 X152.809 Y152.591 E3.6735
G1 X152.65 Y153.192 E3.68812
G1 X152.245 Y154.331 E3.71654
G1 X151.925 Y155.009 E3.73417
G1 X151.527 Y155.67 E3.75231
G1 X151.185 Y156.148 E3.76613
G1 X150.686 Y156.742 E3.78437
G1 X150.27 Y157.164 E3.79831
G1 X149.612 Y157.734 E3.81878
G1 X149.098 Y158.108 E3.83372
G1 X148.503 Y158.468 E3.85007
G1 X148.038 Y158.707 E3.86237
G1 X147.265 Y159.038 E3.88214
G1 X146.667 Y159.237 E3.89696
G1 X146.011 Y159.395 E3.91282
G1 X145.386 Y159.49 E3.92769
G1 X144.025 Y159.582 E3.95976
G1 X143.758 Y159.591 E3.96604
G1 X133.857 Y159.555 E4.19885
G1 X133.073 Y159.469 E4.21739
G1 X131.696 Y159.169 E4.25053
G1 X131.171 Y159.014 E4.2634
G1 X130.802 Y158.852 E4.27288
G1 X129.9 Y158.396 E4.29664
G1 X129.217 Y157.951 E4.31581
G1 X128.214 Y157.13 E4.34629
G1 X127.817 Y156.753 E4.35916
G1 X127.538 Y156.408 E4.36959
G1 X126.862 Y155.462 E4.39693
G1 X126.577 Y154.995 E4.4098
G1 X126.44 Y154.696 E4.41753
G1 X125.946 Y153.483 E4.44833
G1 X125.777 Y152.963 E4.46118
G1 X125.697 Y152.526 E4.47163
G1 X125.553 Y151.354 E4.49939
G1 X125.534 Y150.644 E4.51609
G1 X125.587 Y149.86 E4.53457
G1 X125.676 Y149.261 E4.54881
G1 X125.862 Y148.464 E4.56805
G1 X126.053 Y147.873 E4.58266
G1 X126.374 Y147.103 E4.60227
G1 X126.745 Y146.421 E4.62053
G1 X127.478 Y145.355 E4.65095
G1 X127.683 Y145.085 E4.65892
G1 X130.009 Y142.283 E4.74454
G1 X133.298 Y137.929 E4.87285
G1 X136.346 Y133.381 E5.00158
G1 X137.766 Y131.054 E5.06568
G1 X140.287 Y126.588 E5.18626
G0 F3600 X140.722 Y126.834
G1 F1800 X140.98 Y126.445 E5.19724
G1 X141.48 Y125.798 E5.21646
G1 X141.835 Y125.408 E5.22886
G1 X142.413 Y124.869 E5.24745
G1 X142.989 Y124.441 E5.26432
G1 X144.245 Y123.706 E5.29854
G1 X144.928 Y123.405 E5.31609
G1 X145.68 Y123.173 E5.33459
G1 X146.205 Y123.058 E5.34723
G1 X147.045 Y122.945 E5.36716
G1 X147.564 Y122.917 E5.37938
G1 X148.355 Y122.938 E5.39799
G1 X148.913 Y123.001 E5.41119
G1 X149.769 Y123.174 E5.43172
G1 X150.262 Y123.316 E5.44379
G1 X150.974 Y123.582 E5.46166
G1 X151.468 Y123.815 E5.4745
G1 X152.221 Y124.252 E5.49497
G1 X152.656 Y124.555 E5.50744
G1 X153.269 Y125.06 E5.52611
G1 X153.635 Y125.412 E5.53805
G1 X154.143 Y125.985 E5.55606
G1 X154.483 Y126.444 E5.56949
G1 X154.965 Y127.231 E5.59119
G1 X155.189 Y127.668 E5.60273
G1 X155.459 Y128.31 E5.61911
G1 X155.621 Y128.803 E5.63131
G1 X155.815 Y129.602 E5.65065
G1 X155.901 Y130.17 E5.66415
G1 X155.957 Y131.084 E5.68568
G1 X155.937 Y131.696 E5.70008
G1 X155.757 Y133.1 E5.73336
G1 X155.733 Y133.255 E5.73705
G1 X152.317 Y152.504 E6.19673
G1 X152.179 Y153.025 E6.2094
G1 X151.774 Y154.164 E6.23783
G1 X151.496 Y154.751 E6.2531
G1 X151.098 Y155.412 E6.27124
G1 X150.802 Y155.826 E6.28321
G1 X150.303 Y156.42 E6.30145
G1 X149.943 Y156.786 E6.31352
G1 X149.285 Y157.356 E6.33399
G1 X148.839 Y157.681 E6.34697
G1 X148.244 Y158.041 E6.36332
G1 X147.841 Y158.248 E6.37397
G1 X147.068 Y158.579 E6.39374
G1 X146.55 Y158.751 E6.40658
G1 X145.894 Y158.909 E6.42244
G1 X145.352 Y158.992 E6.43533
G1 X143.991 Y159.084 E6.46741
G1 X143.76 Y159.091 E6.47284
G1 X133.859 Y159.055 E6.70565
G1 X133.179 Y158.981 E6.72173
G1 X131.802 Y158.681 E6.75487
G1 X131.314 Y158.533 E6.76686
G1 X131.028 Y158.405 E6.77423
G1 X130.126 Y157.949 E6.79799
G1 X129.533 Y157.564 E6.81462
G1 X128.53 Y156.743 E6.84509
G1 X128.163 Y156.39 E6.85707
G1 X127.945 Y156.118 E6.86526
G1 X127.269 Y155.172 E6.8926
G1 X126.903 Y154.508 E6.91043
G1 X126.409 Y153.295 E6.94123
G1 X126.254 Y152.809 E6.95322
G1 X126.193 Y152.465 E6.96143
G1 X126.049 Y151.293 E6.9892
G1 X126.032 Y150.678 E7.00367
G1 X126.085 Y149.894 E7.02214
G1 X126.163 Y149.374 E7.03451
G1 X126.349 Y148.577 E7.05375
G1 X126.514 Y148.065 E7.0664
G1 X126.835 Y147.295 E7.08601
G1 X127.157 Y146.705 E7.10182
G1 X127.89 Y145.639 E7.13224
G1 X128.067 Y145.404 E7.13915
G1 X130.409 Y142.583 E7.22536
G1 X133.709 Y138.215 E7.35409
G1 X136.772 Y133.644 E7.48346
G1 X138.176 Y131.343 E7.54684
G1 X140.722 Y126.834 E7.6686
;MESH:
G0 F3600 X142.164 Y130.097
G0 X143.552 Y130.461
G0 X140.754 Y146.667
G0 X140.69 Y146.591
;TYPE:WALL-INNER
G1 F1800 X143.533 Y130.457 E8.05381
G1 X143.725 Y129.726 E8.07158
G1 X144.012 Y129.088 E8.08803
G1 X144.4 Y128.506 E8.10447
G1 X144.878 Y127.996 E8.12091
G1 X145.439 Y127.567 E8.13751
G1 X146.062 Y127.238 E8.15408
G1 X146.719 Y127.019 E8.17036
G1 X147.417 Y126.909 E8.18698
G1 X148.121 Y126.916 E8.20353
G1 X148.807 Y127.037 E8.21991
G1 X149.471 Y127.272 E8.23647
G1 X150.084 Y127.611 E8.25294
G1 X150.634 Y128.047 E8.26945
G1 X151.102 Y128.565 E8.28586
G1 X151.48 Y129.156 E8.30236
G1 X151.758 Y129.804 E8.31894
G1 X151.924 Y130.485 E8.33542
G1 X151.975 Y131.183 E8.35187
G1 X151.907 Y131.924 E8.36937
G1 X148.447 Y151.547 E8.83789
G1 X148.276 Y152.213 E8.85406
G1 X148.01 Y152.829 E8.86983
G1 X147.666 Y153.374 E8.88499
G1 X147.233 Y153.87 E8.90047
G1 X146.727 Y154.296 E8.91602
G1 X146.16 Y154.637 E8.93158
G1 X145.55 Y154.887 E8.94708
G1 X144.907 Y155.038 E8.96261
G1 X144.236 Y155.091 E8.97843
G1 X134.281 Y155.091 E9.21251
G1 X134.11 Y155.077 E9.21654
G1 X133.757 Y155.049 E9.22487
G1 X133.557 Y155.032 E9.22959
G1 X133.056 Y154.905 E9.24174
G1 X132.877 Y154.859 E9.24609
G1 X132.388 Y154.645 E9.25864
G1 X132.231 Y154.576 E9.26267
G1 X131.773 Y154.277 E9.27553
G1 X131.645 Y154.193 E9.27913
G1 X131.229 Y153.81 E9.29243
G1 X131.131 Y153.72 E9.29556
G1 X130.773 Y153.259 E9.30928
G1 X130.701 Y153.167 E9.31203
G1 X130.414 Y152.637 E9.3262
G1 X130.364 Y152.544 E9.32868
G1 X130.164 Y151.962 E9.34315
G1 X130.138 Y151.887 E9.34502
G1 X130.034 Y151.26 E9.35996
G1 X130.022 Y151.191 E9.36161
G1 X130.022 Y151.179 E9.36189
G1 X130.022 Y150.542 E9.37687
G1 X130.022 Y150.491 E9.37807
G1 X130.027 Y150.461 E9.37878
G1 X130.132 Y149.832 E9.39378
G1 X130.138 Y149.796 E9.39464
G1 X130.152 Y149.755 E9.39565
G1 X130.359 Y149.152 E9.41064
G1 X130.364 Y149.139 E9.41097
G1 X130.395 Y149.081 E9.41252
G1 X130.703 Y148.513 E9.42771
G1 X130.749 Y148.454 E9.42947
G1 X131.13 Y147.963 E9.44408
G1 X131.199 Y147.899 E9.4463
G1 X131.645 Y147.49 E9.46053
G1 X131.741 Y147.427 E9.46323
G1 X132.231 Y147.106 E9.477
G1 X132.352 Y147.053 E9.4801
G1 X132.878 Y146.823 E9.4936
G1 X133.018 Y146.788 E9.497
G1 X133.556 Y146.651 E9.51005
G1 X133.719 Y146.638 E9.5139
G1 X134.104 Y146.606 E9.52298
G1 X134.281 Y146.591 E9.52716
G1 X140.69 Y146.591 E9.67785
G0 F3600 X140.754 Y146.667
G0 X135.048 Y147.073
G0 X135.028 Y147.17
G1 F1800 X134.395 Y147.093 E9.69285
G1 X134.146 Y147.105 E9.69871
G1 X133.76 Y147.123 E9.70767
G1 X133.139 Y147.26 E9.72262
G1 X132.549 Y147.5 E9.7376
G1 X132.01 Y147.836 E9.75253
G1 X131.533 Y148.26 E9.76754
G1 X131.137 Y148.755 E9.78244
G1 X130.829 Y149.314 E9.79727
G1 X130.62 Y149.914 E9.81207
G1 X130.516 Y150.542 E9.82688
G1 X130.519 Y151.179 E9.84172
G1 X130.629 Y151.803 E9.85645
G1 X130.833 Y152.375 E9.87058
G1 X130.844 Y152.404 E9.87128
G1 X131.159 Y152.958 E9.88627
G1 X131.559 Y153.45 E9.90118
G1 X132.039 Y153.868 E9.91614
G1 X132.582 Y154.2 E9.93111
G1 X133.176 Y154.434 E9.94612
G1 X133.796 Y154.565 E9.96102
G1 X134.15 Y154.578 E9.96923
G1 X134.433 Y154.589 E9.97589
G1 X135.065 Y154.505 E9.99088
G1 X135.673 Y154.315 E10.00586
G1 X136.238 Y154.026 E10.02078
G1 X136.748 Y153.644 E10.03576
G1 X137.186 Y153.183 E10.05071
G1 X137.539 Y152.653 E10.06569
G1 X137.799 Y152.073 E10.08063
G1 X137.955 Y151.456 E10.0956
G1 X138.007 Y150.823 E10.11053
G1 X137.949 Y150.188 E10.12552
G1 X137.786 Y149.573 E10.14048
G1 X137.519 Y148.993 E10.1555
G1 X137.161 Y148.47 E10.1704
G1 X136.72 Y148.013 E10.18533
G1 X136.204 Y147.637 E10.20034
G1 X135.636 Y147.355 E10.21526
G1 X135.028 Y147.17 E10.2302
G0 F3600 X135.048 Y147.073
G0 X140.715 Y146.621
G0 X140.86 Y146.196
G0 X140.27 Y146.091
;TYPE:WALL-OUTER
G1 F1800 X143.046 Y130.341 E10.60624
G1 X143.251 Y129.561 E10.6252
G1 X143.573 Y128.846 E10.64364
G1 X144.009 Y128.192 E10.66212
G1 X144.541 Y127.625 E10.6804
G1 X145.169 Y127.144 E10.699
G1 X145.862 Y126.778 E10.71743
G1 X146.603 Y126.531 E10.7358
G1 X147.38 Y126.409 E10.75429
G1 X148.165 Y126.416 E10.77275
G1 X148.935 Y126.552 E10.79113
G1 X149.676 Y126.814 E10.80962
G1 X150.363 Y127.195 E10.82809
G1 X150.977 Y127.681 E10.8465
G1 X151.5 Y128.26 E10.86484
G1 X151.926 Y128.926 E10.88343
G1 X152.234 Y129.644 E10.9018
G1 X152.42 Y130.409 E10.92032
G1 X152.477 Y131.186 E10.93863
G1 X152.404 Y131.984 E10.95748
G1 X148.935 Y151.656 E11.42717
G1 X148.75 Y152.375 E11.44462
G1 X148.454 Y153.061 E11.46219
G1 X148.066 Y153.677 E11.47931
G1 X147.585 Y154.228 E11.49651
G1 X147.018 Y154.705 E11.51393
G1 X146.386 Y155.085 E11.53127
G1 X145.704 Y155.365 E11.5486
G1 X144.99 Y155.533 E11.56585
G1 X144.249 Y155.591 E11.58333
G1 X134.264 Y155.591 E11.8181
G1 X133.471 Y155.526 E11.83681
G1 X132.715 Y155.334 E11.85515
G1 X131.994 Y155.018 E11.87366
G1 X131.338 Y154.589 E11.89209
G1 X130.759 Y154.057 E11.91058
G1 X130.281 Y153.442 E11.9289
G1 X129.904 Y152.746 E11.94751
G1 X129.652 Y152.013 E11.96573
G1 X129.522 Y151.231 E11.98437
G1 X129.522 Y150.451 E12.00271
G1 X129.652 Y149.67 E12.02133
G1 X129.904 Y148.937 E12.03956
G1 X130.283 Y148.238 E12.05825
G1 X130.759 Y147.626 E12.07648
G1 X131.338 Y147.094 E12.09497
G1 X131.994 Y146.664 E12.11341
G1 X132.715 Y146.348 E12.13192
G1 X133.471 Y146.157 E12.15026
G1 X134.264 Y146.091 E12.16897
G1 X140.27 Y146.091 E12.31019
G0 F3600 X140.313 Y145.845
G0 X140.904 Y145.95
G0 X140.715 Y146.621
G0 X137.574 Y152.672
G0 X137.217 Y153.207
G0 X136.774 Y153.673
G0 X136.259 Y154.059
G0 X135.688 Y154.352
G0 X135.073 Y154.544
G0 X134.434 Y154.628
G0 X133.915 Y154.61
G0 X132.586 Y154.308
G0 X132.806 Y153.751
G1 F1800 X133.32 Y153.953 E12.32317
G1 X133.858 Y154.067 E12.3361
G1 X134.409 Y154.088 E12.34907
G1 X134.956 Y154.015 E12.36205
G1 X135.483 Y153.85 E12.37503
G1 X135.973 Y153.6 E12.38796
G1 X136.415 Y153.269 E12.40095
G1 X136.794 Y152.87 E12.41389
